!!!!SEGMENT: pl-kk--kk-i-289--001_anonim--spiritus-sancti-gratia.krn
!!!cenid: 17xx:2170
!!!COM: Anonim
!!!COM-rismID: pe30004985
!!!CDT:
!!!CNT:
!!!OTL: Spiritus sancti gratia
!!!PDT:
!!!AGN: Sacred
!!!YEC: Copyright 2022 Narodowy Instytut Fryderyka Chopina (https://polishscores.org)
!!!YEM: License CC-BY-4.0 (https://creativecommons.org/licenses/by/4.0)
!!!SMS-siglum: PL-Kk
!!!SMS-shelfmark: Kk.I.289
!!!SMS-shelfwork: 001 W
!!!SMS-variant:
!!!SMS-altvar:
!!!NIFC-rismSourceID: 1001147277
!!!NIFC-rismChildID: 1001147278
!!!NIFC-islandoraID: pl-kk:5031
!!!URL-pdf-islandora: https://repozytorium.nifc.pl/islandora/object/pl-kk%3A5031/datastream/PDF/view
!!!URL-scan: https://polish.musicsources.pl/pl/lokalizacje/galeria/rekopisy/5907 @EN{Scan on Polish Music Sources Website} @PL{Skany w portalu Dziedzictwo Muzyki Polskiej w otwartym dostępie}
!!!IIIF:
!!!ONB-nifc: UWAGA: utwory w zbiorze: 1. Spiritus sancti gratia, 2. Gaudete omnes
!!!AIN: 1 alto 2 empty 1 tenor 2 vox
!!!key:
**kern	**text	**text	**text	**text	**text	**text	**kern	**text	**text	**text	**text	**text	**text	**kern	**text	**text	**text	**text	**text	**text	**kern	**text	**text	**text	**text	**text	**text	**kern	**text	**text	**text	**text	**text	**text	**kern	**text	**text	**text	**text	**text	**text
*part6	*	*	*	*	*	*	*part5	*	*	*	*	*	*	*part4	*	*	*	*	*	*	*part3	*	*	*	*	*	*	*part2	*	*	*	*	*	*	*part1	*	*	*	*	*	*
*staff6	*	*	*	*	*	*	*staff5	*	*	*	*	*	*	*staff4	*	*	*	*	*	*	*staff3	*	*	*	*	*	*	*staff2	*	*	*	*	*	*	*staff1	*	*	*	*	*	*
*Iempty	*	*	*	*	*	*	*Iempty	*	*	*	*	*	*	*Itenor	*	*	*	*	*	*	*Ialto	*	*	*	*	*	*	*Ivox	*	*	*	*	*	*	*Ivox	*	*	*	*	*	*
*I"Baſso Ripieno.	*	*	*	*	*	*	*I"Baſso.	*	*	*	*	*	*	*I"Tenore	*	*	*	*	*	*	*I"alt(us)	*	*	*	*	*	*	*I"Canto. 2do.	*	*	*	*	*	*	*I"Canto 1mo.	*	*	*	*	*	*
*I'B rip	*	*	*	*	*	*	*I'B	*	*	*	*	*	*	*I'T	*	*	*	*	*	*	*I'A	*	*	*	*	*	*	*I'S 2	*	*	*	*	*	*	*I'S1	*	*	*	*	*	*
*clefF4	*	*	*	*	*	*	*clefF4	*	*	*	*	*	*	*clefC4	*	*	*	*	*	*	*clefC3	*	*	*	*	*	*	*clefC1	*	*	*	*	*	*	*clefC1	*	*	*	*	*	*
*k[]	*	*	*	*	*	*	*k[]	*	*	*	*	*	*	*k[]	*	*	*	*	*	*	*k[]	*	*	*	*	*	*	*k[]	*	*	*	*	*	*	*k[]	*	*	*	*	*	*
*C:	*	*	*	*	*	*	*C:	*	*	*	*	*	*	*C:	*	*	*	*	*	*	*C:	*	*	*	*	*	*	*C:	*	*	*	*	*	*	*C:	*	*	*	*	*	*
*M2/1	*	*	*	*	*	*	*M2/1	*	*	*	*	*	*	*M2/1	*	*	*	*	*	*	*M2/1	*	*	*	*	*	*	*M2/1	*	*	*	*	*	*	*M2/1	*	*	*	*	*	*
*met(C|)	*	*	*	*	*	*	*	*	*	*	*	*	*	*	*	*	*	*	*	*	*	*	*	*	*	*	*	*	*	*	*	*	*	*	*met(C|)	*	*	*	*	*	*
=1-	=1-	=1-	=1-	=1-	=1-	=1-	=1-	=1-	=1-	=1-	=1-	=1-	=1-	=1-	=1-	=1-	=1-	=1-	=1-	=1-	=1-	=1-	=1-	=1-	=1-	=1-	=1-	=1-	=1-	=1-	=1-	=1-	=1-	=1-	=1-	=1-	=1-	=1-	=1-	=1-	=1-
!	!	!	!	!	!	!	!LO:TX:a:t=à 5. Vocib(us).	!	!	!	!	!	!	!	!	!	!	!	!	!	!	!	!	!	!	!	!	!	!	!	!	!	!	!	!	!	!	!	!	!	!
1G\	Spi-	Di-	Mi-	Di-	Da-	Er-	1G\	Spi-	Di-	Mi-	Di-	Da-	Er-	1G/	Spi-	Di-	Mi-	Di-	Da-	Er-	1d\	Spi-	Di-	Mi-	Di-	Da-	Er-	1g\	Spi-	Di-	Mi-	Di-	Da-	Er-	2.g/	Spi-	Di-	Mi-	Di-	Da-	Er-
!	!	!	!	!	!	!	!	!	!	!	!	!	!	!	!	!	!	!	!	!	!	!	!	!	!	!	!	!	!	!	!	!	!	!	!LO:TX:t=P:problem=kreska pseudotaktowa	!	!	!	!	!	!
.	.	.	.	.	.	.	.	.	.	.	.	.	.	.	.	.	.	.	.	.	.	.	.	.	.	.	.	.	.	.	.	.	.	.	4a\	.	.	.	.	.	.
*2\right	*	*	*	*	*	*	*	*	*	*	*	*	*	*	*	*	*	*	*	*	*	*	*	*	*	*	*	*	*	*	*	*	*	*	*	*	*	*	*	*	*
2G\	-ri-	-cens	-ſit	-cens	-bit	-go	2G\	-ri-	-cens	-ſit	-cens	-bit	-go	2G/	-ri-	-cens	-ſit	-cens	-bit	-go	2d\	-ri-	-cens	-ſit	-cens	-bit	-go	2g/	-ri-	-cens	-ſit	-cens	-bit	-go	2bn\	-ri-	-cens	-ſit	-cens	-bit	-go
!LO:TX:t=P:problem=kreska pseudotaktowa	!	!	!	!	!	!	!LO:TX:t=P:problem=kreska pseudotaktowa	!	!	!	!	!	!	!LO:TX:t=P:problem=kreska pseudotaktowa	!	!	!	!	!	!	!LO:TX:t=P:problem=kreska pseudotaktowa	!	!	!	!	!	!	!LO:TX:t=P:problem=kreska pseudotaktowa	!	!	!	!	!	!	!LO:TX:t=P:problem=kreska pseudotaktowa	!	!	!	!	!	!
2G\	-tûs	e-	per	e-	vo-	nunc	2G\	-t(us)	e-	per	e-	vo-	nunc	2G/	-t(us)	e-	per	e-	vo-	nunc	2d\	-t(us)	e-	per	e-	vo-	nunc	2g/	-t(us)	e-	per	e-	vo-	nunc	2b\	-t(us)	e-	per	e-	vo-	nunc
=2-	=2-	=2-	=2-	=2-	=2-	=2-	=2-	=2-	=2-	=2-	=2-	=2-	=2-	=2-	=2-	=2-	=2-	=2-	=2-	=2-	=2-	=2-	=2-	=2-	=2-	=2-	=2-	=2-	=2-	=2-	=2-	=2-	=2-	=2-	=2-	=2-	=2-	=2-	=2-	=2-	=2-
1.Fn\	ſan-	-is	mun-	-is	-bis	cum	1.Fn\	ſan-	-is	mun-	-is	-bis	cum	2.A/	ſan-	-is	mun-	-is	-bis	cum	1fn\	ſan-	-is	mun-	-is	-bis	cum	2.cc\	ſan-	-is	mun-	-is	-bis	cum	1a\	ſan-	-is	mun-	-is	-bis	cum
.	.	.	.	.	.	.	.	.	.	.	.	.	.	4B\	.	.	.	.	.	.	.	.	.	.	.	.	.	4b\	.	.	.	.	.	.	.	.	.	.	.	.	.
.	.	.	.	.	.	.	.	.	.	.	.	.	.	2c\	.	.	.	.	.	.	2f\	.	.	.	.	.	.	2a\	.	.	.	.	.	.	2a\	.	.	.	.	.	.
!LO:TX:t=P:problem=kreska pseudotaktowa	!	!	!	!	!	!	!LO:TX:t=P:problem=kreska pseudotaktowa	!	!	!	!	!	!	!LO:TX:t=P:problem=kreska pseudotaktowa	!	!	!	!	!	!	!LO:TX:t=P:problem=kreska pseudotaktowa	!	!	!	!	!	!	!LO:TX:t=P:problem=kreska pseudotaktowa	!	!	!	!	!	!	!LO:TX:t=P:problem=kreska pseudotaktowa	!	!	!	!	!	!
2G\	-cti	ac-	-di	cùm	in	tri-	2G\	-cti	ac-	-di	cu(m)	in	tri-	2B\	-cti	ac-	-di	cu(m)	in	tri-	2d\	-cti	ac-	-di	cu(m)	in	tri-	2g/	-cti	ac-	-di	cu(m)	in	tri-	2b\	-cti	ac-	-di	cu(m)	in	tri-
=3-	=3-	=3-	=3-	=3-	=3-	=3-	=3-	=3-	=3-	=3-	=3-	=3-	=3-	=3-	=3-	=3-	=3-	=3-	=3-	=3-	=3-	=3-	=3-	=3-	=3-	=3-	=3-	=3-	=3-	=3-	=3-	=3-	=3-	=3-	=3-	=3-	=3-	=3-	=3-	=3-	=3-
2F\	gra-	-ci-	ma-	ſte-	il-	-pu-	2F\	gra-	-ci-	ma-	ſte-	il-	-pu-	2c\	gra-	-ci-	ma-	ſte-	il-	-pu-	2f\	gra-	-ci-	ma-	ſte-	il-	-pu-	2a\	gra-	-ci-	ma-	ſte-	il-	-pu-	2a\	gra-	-ci-	ma-	ſte-	il-	-pu-
!LO:TX:t=P:problem=kreska pseudotaktowa	!	!	!	!	!	!	!LO:TX:t=P:problem=kreska pseudotaktowa	!	!	!	!	!	!	!	!	!	!	!	!	!	!	!	!	!	!	!	!	!	!	!	!	!	!	!	!	!	!	!	!	!	!
2C/	.	.	.	.	-la	.	2C/	.	.	.	.	-la	.	2e\	.	.	.	.	-la	.	4e\	.	.	.	.	-la	.	1cc\	.	.	.	-te-	-la	.	2.g/	.	.	.	-te-	-la	.
.	.	.	.	.	.	.	.	.	.	.	.	.	.	.	.	.	.	.	.	.	4f\	.	.	.	.	.	.	.	.	.	.	.	.	.	.	.	.	.	.	.	.
2G\	.	.	.	-te-	.	.	2.G\	.	.	.	-te-	.	.	2.d\	.	.	.	-te-	.	.	2.g\	.	.	.	-te-	.	.	.	.	.	.	.	.	.	.	.	.	.	.	.	.
.	.	.	.	.	.	.	.	.	.	.	.	.	.	.	.	.	.	.	.	.	.	.	.	.	.	.	.	.	.	.	.	.	.	.	4a\	.	.	.	.	.	.
!	!	!	!	!	!	!	!	!	!	!	!	!	!	!	!	!	!	!	!	!	!	!	!	!	!	!	!	!	!	!	!	!	!	!	!LO:TX:t=P:problem=kreska pseudotaktowa	!	!	!	!	!	!
2GG/	-ti-	-pi-	-chi-	-ri-	ho-	-di-	.	.	.	.	.	.	.	.	.	.	.	.	.	.	.	.	.	.	.	.	.	2b\	-ti-	-pi-	-chi-	-ri-	ho-	-di-	2b\	-ti-	-pi-	-chi-	-ri-	ho-	-di-
.	.	.	.	.	.	.	4G\	-ti-	-pi-	-chi-	-ri-	ho-	-di-	4d\	-ti-	-pi-	-chi-	-ri-	ho-	-di-	4g\	-ti-	-pi-	-chi-	-ri-	ho-	-di-	.	.	.	.	.	.	.	.	.	.	.	.	.	.
=4-	=4-	=4-	=4-	=4-	=4-	=4-	=4-	=4-	=4-	=4-	=4-	=4-	=4-	=4-	=4-	=4-	=4-	=4-	=4-	=4-	=4-	=4-	=4-	=4-	=4-	=4-	=4-	=4-	=4-	=4-	=4-	=4-	=4-	=4-	=4-	=4-	=4-	=4-	=4-	=4-	=4-
!LO:TX:t=P:problem=kreska pseudotaktowa	!	!	!	!	!	!	!LO:TX:t=P:problem=kreska pseudotaktowa	!	!	!	!	!	!	!LO:TX:t=P:problem=kreska pseudotaktowa	!	!	!	!	!	!	!LO:TX:t=P:problem=kreska pseudotaktowa	!	!	!	!	!	!	!LO:TX:t=P:problem=kreska pseudotaktowa	!	!	!	!	!	!	!LO:TX:t=P:problem=kreska pseudotaktowa	!	!	!	!	!	!
1C/	-a	-te	-nam	-tis	-ra	-o	1C/	-a	-te	-na(m)	-tis	-ra	-o	1c\	-a	-te	-na(m)	-tis	-ra	-o	1e\	-a	-te	-na(m)	-tis	-ra	-o	1cc\	-a	-te	-na(m)	-tis	-ra	-o	1g\	-a	-te	-na(m)	-tis	-ra	-o
2r	.	.	.	.	.	.	2r	.	.	.	.	.	.	2r	.	.	.	.	.	.	2r	.	.	.	.	.	.	2r	.	.	.	.	.	.	2r	.	.	.	.	.	.
!LO:TX:t=P:problem=kreska pseudotaktowa	!	!	!	!	!	!	!LO:TX:t=P:problem=kreska pseudotaktowa	!	!	!	!	!	!	!LO:TX:t=P:problem=kreska pseudotaktowa	!	!	!	!	!	!	!LO:TX:t=P:problem=kreska pseudotaktowa	!	!	!	!	!	!	!	!	!	!	!	!	!	!LO:TX:t=P:problem=kreska pseudotaktowa	!	!	!	!	!	!
2C/	a-	ſpi-	fa-	co-	ho-	be-	2C/	a-	ſpi-	fa-	co-	ho-	be-	2e\	a-	ſpi-	fa-	Co-	ho-	be-	2g\	a-	ſpi-	fa-	Co-	ho-	be-	2cc\	a-	ſpi-	fa-	Co-	ho-	be-	2g/	a-	ſpi-	fa-	Co-	ho-	be-
=5-	=5-	=5-	=5-	=5-	=5-	=5-	=5-	=5-	=5-	=5-	=5-	=5-	=5-	=5-	=5-	=5-	=5-	=5-	=5-	=5-	=5-	=5-	=5-	=5-	=5-	=5-	=5-	=5-	=5-	=5-	=5-	=5-	=5-	=5-	=5-	=5-	=5-	=5-	=5-	=5-	=5-
2G\	-po-	-ri-	-ri	-ram	-nor	-ne-	2G\	-po-	-ri-	-ri	-ra(m)	-nor	-ne-	2d\	-po-	-ri-	-ri	-ra(m)	-nor	-ne-	2g\	-po-	-ri-	-ri	-ra(m)	-nor	-ne-	2dd\	-po-	-ri-	-ri	-ra(m)	-nor	-ne-	2b\	-po-	-ri-	-ri	-ra(m)	-nor	-ne-
!LO:TX:t=P:problem=kreska pseudotaktowa	!	!	!	!	!	!	!LO:TX:t=P:problem=kreska pseudotaktowa	!	!	!	!	!	!	!LO:TX:t=P:problem=kreska pseudotaktowa	!	!	!	!	!	!	!LO:TX:t=P:problem=kreska pseudotaktowa	!	!	!	!	!	!	!LO:TX:t=P:problem=kreska pseudotaktowa	!	!	!	!	!	!	!LO:TX:t=P:problem=kreska pseudotaktowa	!	!	!	!	!	!
2G\	-sto-	-tum	ver-	Re-	vir-	-di-	2G\	-sto-	-tu(m)	ver-	Re-	vir-	-di-	2d\	-sto-	-tu(m)	ver-	Re-	vir-	-di-	2g\	-sto-	-tu(m)	ver-	Re-	vir-	-di-	2dd\	-sto-	-tu(m)	ver-	Re-	vir-	-di-	2b\	-sto-	-tu(m)	ver-	Re-	vir-	-di-
!	!	!	!	!	!	!	!	!	!	!	!	!	!	!	!	!	!	!	!	!	!LO:TX:t=P:problem=kreska pseudotaktowa	!	!	!	!	!	!	!	!	!	!	!	!	!	!	!	!	!	!	!	!
1E\	-lo-	.	-bi	-gi-	-tus	-ca-	1E\	-lo-	.	-bi	-gi-	-t(us)	-ca-	1c\	-lo-	.	-bi	-gi-	-t(us)	-ca-	1g\	-lo-	.	-bi	-gi-	-t(us)	-ca-	1ee\	-lo-	.	-bi	-gi-	-t(us)	-ca-	1cc\	-lo-	.	-bi	-gi-	-t(us)	-ca-
=6-	=6-	=6-	=6-	=6-	=6-	=6-	=6-	=6-	=6-	=6-	=6-	=6-	=6-	=6-	=6-	=6-	=6-	=6-	=6-	=6-	=6-	=6-	=6-	=6-	=6-	=6-	=6-	=6-	=6-	=6-	=6-	=6-	=6-	=6-	=6-	=6-	=6-	=6-	=6-	=6-	=6-
!	!	!	!	!	!	!	!	!	!	!	!	!	!	!LO:TX:t=P:problem=kreska pseudotaktowa	!	!	!	!	!	!	!	!	!	!	!	!	!	!	!	!	!	!	!	!	!	!	!	!	!	!	!
(4D\	.	ſan-	po-	-b(us)	et	-m(us)	4D\	.	ſan-	po-	-b(us)	et	-m(us)	1f\	-r(um)	ſan-	po-	-b(us)	et	-m(us)	2f\	-r(um)	ſan-	po-	-b(us)	et	-m(us)	2.a\	-r(um)	ſan-	po-	-b(us)	et	-m(us)	2a\	-r(um)	ſan-	po-	-b(us)	et	-m(us)
4E\	.	.	.	.	.	.	4E\	.	.	.	.	.	.	.	.	.	.	.	.	.	.	.	.	.	.	.	.	.	.	.	.	.	.	.	.	.	.	.	.	.	.
!	!	!	!	!	!	!	!	!	!	!	!	!	!	!	!	!	!	!	!	!	!	!	!	!	!	!	!	!	!	!	!	!	!	!	!LO:TX:t=P:problem=kreska pseudotaktowa	!	!	!	!	!	!
4F\	.	.	.	.	.	.	4F\	.	.	.	.	.	.	.	.	.	.	.	.	.	1a\	pe-	-ct(um)	.	et	.	Do-	.	.	.	.	.	.	.	2dd\	.	.	.	et	.	.
!LO:TX:t=P:problem=kreska pseudotaktowa	!	!	!	!	!	!	!	!	!	!	!	!	!	!	!	!	!	!	!	!	!	!	!	!	!	!	!	!LO:TX:t=P:problem=kreska pseudotaktowa	!	!	!	!	!	!	!	!	!	!	!	!	!
4G\)	.	.	.	.	.	.	4G\	.	.	.	.	.	.	.	.	.	.	.	.	.	.	.	.	.	.	.	.	4b\	.	.	.	et	.	.	.	.	.	.	.	.	.
2A\	.	.	-ten-	et	.	Do-	2A\	.	.	-ten-	et	.	Do-	2e\	pe-	-ctum	.	et	.	Do-	.	.	.	.	.	.	.	2cc\	pe-	-ct(um)	.	Prin-	ſa-	Do-	2cc\	pe-	-ct(um)	.	Prin-	ſa-	Do-
!	!	!	!	!	!	!	!LO:TX:t=P:problem=kreska pseudotaktowa	!	!	!	!	!	!	!	!	!	!	!	!	!	!LO:TX:t=P:problem=kreska pseudotaktowa	!	!	!	!	!	!	!	!	!	!	!	!	!	!LO:TX:a:t=b	!	!	!	!	!	!
2B-X\	-rum	-ct(um)	.	Prin-	ſa-	.	2B-X\	-rum	-ct(um)	.	Prin-	ſa-	.	2d\	.	.	.	Prin-	ſa-	.	2g\	.	.	.	Prin-	ſa-	.	1dd\	.	ho-	-ten-	-ci-	-pien-	.	2b\	.	ho-	-ten-	-ci-	-pien-	.
=7-	=7-	=7-	=7-	=7-	=7-	=7-	=7-	=7-	=7-	=7-	=7-	=7-	=7-	=7-	=7-	=7-	=7-	=7-	=7-	=7-	=7-	=7-	=7-	=7-	=7-	=7-	=7-	=7-	=7-	=7-	=7-	=7-	=7-	=7-	=7-	=7-	=7-	=7-	=7-	=7-	=7-
2.A\	pec-	ho-	.	-ci-	-pien-	.	2.A\	pec-	ho-	.	-ci-	-pien-	.	2.e\	.	ho-	-ten-	-ci-	-pien-	.	2.a\	.	ho-	-ten-	-ci-	-pien-	.	.	.	.	.	.	.	.	2.e/	.	.	.	.	.	.
.	.	.	.	.	.	.	.	.	.	.	.	.	.	.	.	.	.	.	.	.	.	.	.	.	.	.	.	2cc#X\	-cto-	-di-	-ti-	-pi-	-ti-	-mi-	.	.	.	.	.	.	.
!LO:TX:t=P:problem=kreska pseudotaktowa	!	!	!	!	!	!	!LO:TX:t=P:problem=kreska pseudotaktowa	!	!	!	!	!	!	!	!	!	!	!	!	!	!	!	!	!	!	!	!	!	!	!	!	!	!	!	!LO:TX:t=P:problem=kreska pseudotaktowa	!	!	!	!	!	!
4AA/	-to-	-di-	-ti-	-pi-	-ti-	-mi-	4A\	-to-	-di-	-ti-	-pi-	-ti-	-mi-	4e\	-cto-	-di-	-ti-	-pi-	-ti-	-mi-	4a\	-cto-	-di-	-ti-	-pi-	-ti-	-mi-	.	.	.	.	.	.	.	4a\	-cto-	-di-	-ti-	-pi-	-ti-	-mi-
*custos:G	*	*	*	*	*	*	*	*	*	*	*	*	*	*	*	*	*	*	*	*	*	*	*	*	*	*	*	*	*	*	*	*	*	*	*	*	*	*	*	*	*
!LO:TX:t=P:problem=kreska pseudotaktowa	!	!	!	!	!	!	!	!	!	!	!	!	!	!	!	!	!	!	!	!	!	!	!	!	!	!	!	!	!	!	!	!	!	!	!	!	!	!	!	!	!
!	!	!	!	!	!	!	!	!	!	!	!	!	!	!LO:TX:t=P:problem=kreska pseudotaktowa	!	!	!	!	!	!	!LO:TX:t=P:problem=kreska pseudotaktowa	!	!	!	!	!	!	!LO:TX:t=P:problem=kreska pseudotaktowa	!	!	!	!	!	!	!LO:TX:t=P:problem=kreska pseudotaktowa	!	!	!	!	!	!
1D\,	-ra	-e	-am	-b(us)	-a	-no	1BB/	-ra	-e	-a(m)	-b(us)	-a	-no	1d\	-ra	-e	-a(m)	-b(us)	-a	-no	1f\	-ra	-e	-a(m)	-b(us)	-a	-no	1dd\	-ra	-e	-a(m)	-b(us)	-a	-no	1a\	-ra	-e	-a(m)	-b(us)	-a	-no
!LO:LB:g=original	!	!	!	!	!	!	!	!	!	!	!	!	!	!	!	!	!	!	!	!	!	!	!	!	!	!	!	!	!	!	!	!	!	!	!	!	!	!	!	!	!
=8-	=8-	=8-	=8-	=8-	=8-	=8-	=8-	=8-	=8-	=8-	=8-	=8-	=8-	=8-	=8-	=8-	=8-	=8-	=8-	=8-	=8-	=8-	=8-	=8-	=8-	=8-	=8-	=8-	=8-	=8-	=8-	=8-	=8-	=8-	=8-	=8-	=8-	=8-	=8-	=8-	=8-
2r	.	.	.	.	.	.	2r	.	.	.	.	.	.	2r	.	.	.	.	.	.	2r	.	.	.	.	.	.	2r	.	.	.	.	.	.	2r	.	.	.	.	.	.
!	!	!	!	!	!	!	!LO:TX:t=P:problem=kreska pseudotaktowa	!	!	!	!	!	!	!LO:TX:t=P:problem=kreska pseudotaktowa	!	!	!	!	!	!	!LO:TX:t=P:problem=kreska pseudotaktowa	!	!	!	!	!	!	!	!	!	!	!	!	!	!LO:TX:t=P:problem=kreska pseudotaktowa	!	!	!	!	!	!
2G\	re-	qui	ut	no-	quae	Lau-	2G\	re-	qui	ut	no-	quae	Lau-	2d\	re-	qui	ut	no-	quae	Lau-	2g\	re-	qui	ut	no-	quae	Lau-	2dd\	re-	qui	ut	no-	quae	Lau-	2g/	re-	qui	ut	no-	quae	Lau-
2C/	-ple-	vos	prae-	-li-	re-	-de-	2C/	-ple-	vos	prae-	-li-	re-	-de-	2e\	-ple-	vos	prae-	-li-	re-	-de-	2g\	-ple-	vos	prae-	-li-	re-	-de-	2ccn\	-ple-	vos	prae-	-li-	re-	-de-	2cc\	-ple-	vos	prae-	-li-	re-	-de-
!LO:TX:t=P:problem=kreska pseudotaktowa	!	!	!	!	!	!	!LO:TX:t=P:problem=kreska pseudotaktowa	!	!	!	!	!	!	!	!	!	!	!	!	!	!	!	!	!	!	!	!	!LO:TX:t=P:problem=kreska pseudotaktowa	!	!	!	!	!	!	!LO:TX:t=P:problem=kreska pseudotaktowa	!	!	!	!	!	!
2G\	-vit	.	-di-	-te	-plet	-tur	2G\	-vit	.	-di-	-te	-plet	-t(ur)	2d\	-vit	.	-di-	-te	-plet	-t(ur)	1e\	-vit	.	-di-	-te	-plet	-t(ur)	2b\	-vit	.	-di-	-te	-plet	-t(ur)	2dd\	-vit	.	-di-	-te	-plet	-t(ur)
=9-	=9-	=9-	=9-	=9-	=9-	=9-	=9-	=9-	=9-	=9-	=9-	=9-	=9-	=9-	=9-	=9-	=9-	=9-	=9-	=9-	=9-	=9-	=9-	=9-	=9-	=9-	=9-	=9-	=9-	=9-	=9-	=9-	=9-	=9-	=9-	=9-	=9-	=9-	=9-	=9-	=9-
!	!	!	!	!	!	!	!	!	!	!	!	!	!	!	!	!	!	!	!	!	!	!	!	!	!	!	!	!	!	!	!	!	!	!	!LO:TX:t=P:problem=kreska pseudotaktowa	!	!	!	!	!	!
2.A\	ſu-	do-	-ca-	prae-	de-	ſan-	2.A\	ſu-	do-	-ca-	prae-	de-	ſan-	2.c\	ſu-	do-	-ca-	prae-	de-	ſan-	.	.	.	.	.	.	.	2.a\	ſu-	do-	-ca-	prae-	de-	ſan-	1a\	ſu-	do-	-ca-	prae-	de-	ſan-
!	!	!	!	!	!	!	!	!	!	!	!	!	!	!	!	!	!	!	!	!	!LO:TX:t=P:problem=kreska pseudotaktowa	!	!	!	!	!	!	!	!	!	!	!	!	!	!	!	!	!	!	!	!
.	.	.	.	.	.	.	.	.	.	.	.	.	.	.	.	.	.	.	.	.	2f\	ſu-	do-	-ca-	prae-	de-	ſan-	.	.	.	.	.	.	.	.	.	.	.	.	.	.
!	!	!	!	!	!	!	!LO:TX:t=P:problem=kreska pseudotaktowa	!	!	!	!	!	!	!LO:TX:t=P:problem=kreska pseudotaktowa	!	!	!	!	!	!	!	!	!	!	!	!	!	!	!	!	!	!	!	!	!	!	!	!	!	!	!
4G\	.	ce-	-rent	-me-	-ſi-	.	4G\	.	ce-	-rent	-me-	-ſi-	.	4B\	.	ce-	-rent	-me-	-ſi-	.	.	.	.	.	.	.	.	4b\	.	ce-	-rent	-me-	-ſi-	.	.	.	.	.	.	.	.
2F\	-a	-bit	va-	-di-	-de-	-cta	2F\	-a	-bit	va-	-di-	-de-	-cta	2A/	-a	-bit	va-	-di-	-de-	-cta	1d\	-a	ce-	-rent	-me-	-ſi-	-cta	2cc\	-a	.	va-	-di-	-de-	-cta	2a\	.	ce-	-rent	-me-	-ſi-	.
1G\	.	.	.	.	.	.	1G\	.	.	.	.	.	.	1d\	.	.	.	.	.	.	.	.	.	.	.	.	.	1b\	.	.	-rys	.	.	.	2.g/	-a	-bit	va-	-di-	-de-	-cta
=10-	=10-	=10-	=10-	=10-	=10-	=10-	=10-	=10-	=10-	=10-	=10-	=10-	=10-	=10-	=10-	=10-	=10-	=10-	=10-	=10-	=10-	=10-	=10-	=10-	=10-	=10-	=10-	=10-	=10-	=10-	=10-	=10-	=10-	=10-	=10-	=10-	=10-	=10-	=10-	=10-	=10-
.	.	.	.	.	.	.	.	.	.	.	.	.	.	.	.	.	.	.	.	.	2.g\	.	.	.	.	.	.	.	.	.	.	.	.	.	.	.	.	.	.	.	.
.	.	.	.	.	.	.	.	.	.	.	.	.	.	.	.	.	.	.	.	.	.	.	.	.	.	.	.	.	.	.	.	.	.	.	(4a\	.	.	.	ta-	.	Tri-
!LO:TX:t=P:problem=kreska pseudotaktowa	!	!	!	!	!	!	!	!	!	!	!	!	!	!	!	!	!	!	!	!	!	!	!	!	!	!	!	!	!	!	!	!	!	!	!	!	!	!	!	!	!
2GG/	.	.	.	.	.	.	2GG/	.	.	.	.	.	.	4c\	.	.	.	.	.	.	.	.	.	.	.	.	.	4a\	.	.	.	.	.	.	4b\	.	.	.	.	.	.
!	!	!	!	!	!	!	!	!	!	!	!	!	!	!	!	!	!	!	!	!	!	!	!	!	!	!	!	!LO:TX:t=P:problem=kreska pseudotaktowa	!	!	!	!	!	!	!LO:TX:t=P:problem=kreska pseudotaktowa	!	!	!	!	!	!
.	.	.	.	.	.	.	.	.	.	.	.	.	.	4B\	.	.	.	.	.	.	4f\	.	.	.	.	.	.	4g\	.	.	.	.	.	.	4cc\)	.	.	.	.	.	.
*	*	*	*	*	*	*	*	*	*	*	*	*	*	*	*	*	*	*	*	*	*	*	*	*	*	*	*	*custos:g	*	*	*	*	*	*	*	*	*	*	*	*	*
!	!	!	!	!	!	!	!	!	!	!	!	!	!	!LO:LB:g=original	!	!	!	!	!	!	!	!	!	!	!	!	!	!	!	!	!	!	!	!	!LO:LB:g=original	!	!	!	!	!	!
2C/	gra-	o-	.	-ta-	.	Tri-	2C/	gra-	o-	-rÿs	-ta-	.	Tri-	2A/	gra-	o-	-rÿs	-ta-	.	Tri-	2e\	gra-	-bit-	va-	-di-	-de-	Tri-	2a\	gra	-bit	.	.	.	Tri-	1g\	.	.	-ris	.	.	.
!	!	!	!	!	!	!	!	!	!	!	!	!	!	!	!	!	!	!	!	!	!	!	!	!	!	!	!	!LO:LB:g=original	!	!	!	!	!	!	!	!	!	!	!	!	!
!	!	!	!	!	!	!	!LO:TX:t=P:problem=kreska pseudotaktowa	!	!	!	!	!	!	!	!	!	!	!	!	!	!LO:TX:t=P:problem=kreska pseudotaktowa	!	!	!	!	!	!	!	!	!	!	!	!	!	!	!	!	!	!	!	!
2E/	.	.	.	.	.	.	2E/	.	.	.	.	.	.	2G/	.	.	.	.	.	.	2c/	.	.	.	.	.	.	1g\	.	.	.	.	.	.	.	.	.	.	.	.	.
=11-	=11-	=11-	=11-	=11-	=11-	=11-	=11-	=11-	=11-	=11-	=11-	=11-	=11-	=11-	=11-	=11-	=11-	=11-	=11-	=11-	=11-	=11-	=11-	=11-	=11-	=11-	=11-	=11-	=11-	=11-	=11-	=11-	=11-	=11-	=11-	=11-	=11-	=11-	=11-	=11-	=11-
2.D\	.	.	.	.	.	.	2.D/	.	.	.	.	.	.	2.A/	.	.	.	.	.	.	2.d/	.	-o-	.	.	.	.	.	.	.	.	.	.	.	2.a\	.	o-	lin-	.	.	.
!	!	!	!	!	!	!	!	!	!	!	!	!	!	!	!	!	!	!	!	!	!	!	!	!	!	!	!	!LO:TX:t=P:problem=kreska pseudotaktowa	!	!	!	!	!	!	!	!	!	!	!	!	!
.	.	.	.	.	.	.	.	.	.	.	.	.	.	.	.	.	.	.	.	.	.	.	.	.	.	.	.	2f#/	-ti-	-mni-	va-	-ta-	-ri-	-ni-	.	.	.	.	.	.	.
4D\	-ti-	-mni-	.	.	-ri-	-ni-	4D\	-(ti)-	-mni-	lin-	.	-ri-	-ni-	4A/	-ti-	-mni-	.	.	-ri-	-ni-	4d\	-ti-	-mni-	.	-ta-	-ri-	-ni-	.	.	.	.	.	.	.	4a\	-ti-	-mni-	-gu-	.	-ri-	-ni-
!	!	!	!	!	!	!	!LO:LB:g=original	!	!	!	!	!	!	!	!	!	!	!	!	!	!	!	!	!	!	!	!	!	!	!	!	!	!	!	!	!	!	!	!	!	!
!LO:TX:t=P:problem=kreska pseudotaktowa	!	!	!	!	!	!	!LO:TX:t=P:problem=kreska pseudotaktowa	!	!	!	!	!	!	!LO:TX:t=P:problem=kreska pseudotaktowa	!	!	!	!	!	!	!LO:TX:t=P:problem=kreska pseudotaktowa	!	!	!	!	!	!	!LO:TX:t=P:problem=kreska pseudotaktowa	!	!	!	!	!	!	!LO:TX:t=P:problem=kreska pseudotaktowa	!	!	!	!	!	!
1GG/	-a	-a	-rÿs	-ri,	-a	-tas	1G\	-a	-a	-guis	-ri,	-a	-tas	1G/	-a	-a	-ris	-ri	-a	-tas	1d\	-a	-a	-rÿs	-ri	-a	-tas	1g\	-a	-a	-ri	-ri	-a	-tas	1b\	-a	-a	-is	-ri	-a	-tas
=12-	=12-	=12-	=12-	=12-	=12-	=12-	=12-	=12-	=12-	=12-	=12-	=12-	=12-	=12-	=12-	=12-	=12-	=12-	=12-	=12-	=12-	=12-	=12-	=12-	=12-	=12-	=12-	=12-	=12-	=12-	=12-	=12-	=12-	=12-	=12-	=12-	=12-	=12-	=12-	=12-	=12-
2r	.	.	.	.	.	.	2r	.	.	.	.	.	.	2r	.	.	.	.	.	.	2r	.	.	.	.	.	.	2r	.	.	.	.	.	.	2r	.	.	.	.	.	.
!LO:TX:t=P:problem=kreska pseudotaktowa	!	!	!	!	!	!	!LO:TX:t=P:problem=kreska pseudotaktowa	!	!	!	!	!	!	!LO:TX:t=P:problem=kreska pseudotaktowa	!	!	!	!	!	!	!LO:TX:t=P:problem=kreska pseudotaktowa	!	!	!	!	!	!	!	!	!	!	!	!	!	!LO:TX:t=P:problem=kreska pseudotaktowa	!	!	!	!	!	!
2G\	do-	fu-	lin-	quo-	ſu-	De-	2G\	do-	Fu-	o-	quo-	ſu-	De-	2B\	do-	Fu-	o-	quo-	ſu-	De-	2g\	do-	fu-	o-	quo-	ſu-	De-	2dd\	do-	Fu-	O-	quo-	ſu-	De-	2g/	do-	Fu-	O-	quo-	ſu-	De-
!	!	!	!	!	!	!	!	!	!	!	!	!	!	!	!	!	!	!	!	!	!LO:LB:g=original	!	!	!	!	!	!	!	!	!	!	!	!	!	!	!	!	!	!	!	!
2G\	-nans	-tu-	-gu-	-mo-	-a	-o	2G\	-nans	-tu-	-mni	-mo-	-a	-o	2B\	-nans	-tu-	-mni	-mo-	-a	-o	2g\	-nans	-tu-	-mni	-mo-	-a	-o	2dd\	-nans	-tu-	-mni	-mo-	-a	-o	2b\	-nans	-tu-	-mni	-mo-	-a	-o
!LO:TX:t=P:problem=kreska pseudotaktowa	!	!	!	!	!	!	!LO:TX:t=P:problem=kreska pseudotaktowa	!	!	!	!	!	!	!LO:TX:t=P:problem=kreska pseudotaktowa	!	!	!	!	!	!	!LO:TX:t=P:problem=kreska pseudotaktowa	!	!	!	!	!	!	!LO:TX:t=P:problem=kreska pseudotaktowa	!	!	!	!	!	!	!	!	!	!	!	!	!
2G\	lin-	-ra	-is	-do	Vir-	di-	2G\	lin-	-ra	Cre-	-do	Vir-	di-	2B\	lin-	-ra	Cre-	-do	Vir-	di-	2g\	lin-	-ra	Cre-	-do	Vir-	di-	2dd\	lin-	-ra	Cre-	-do	Vir-	di-	2g/	lin-	-ra	Cre-	-do	Vir-	di-
=13-	=13-	=13-	=13-	=13-	=13-	=13-	=13-	=13-	=13-	=13-	=13-	=13-	=13-	=13-	=13-	=13-	=13-	=13-	=13-	=13-	=13-	=13-	=13-	=13-	=13-	=13-	=13-	=13-	=13-	=13-	=13-	=13-	=13-	=13-	=13-	=13-	=13-	=13-	=13-	=13-	=13-
*	*	*	*	*	*	*	*	*	*	*	*	*	*	*	*	*	*	*	*	*	*2\right	*	*	*	*	*	*	*	*	*	*	*	*	*	*	*	*	*	*	*	*
2.F\	-gu-	et	o-	aut	-tu-	-ca-	2.F\	-gu-	et	-a-	aut	-tu-	-ca-	1.c\	-gu-	et	-a-	aut	-tu-	-ca-	2a\	-gu-	et	-a-	aut	-tu-	-ca-	2.a\	-gu-	et	-a-	aut	-tu-	-ca-	1cc\	-gu-	et	-a-	aut	-tu-	-ca-
.	.	.	.	.	.	.	.	.	.	.	.	.	.	.	.	.	.	.	.	.	2f\	-a-	.	.	.	-te	m(us)	.	.	.	.	.	.	.	.	.	.	.	.	.	.
!	!	!	!	!	!	!	!LO:TX:t=P:problem=kreska pseudotaktowa	!	!	!	!	!	!	!	!	!	!	!	!	!	!	!	!	!	!	!	!	!	!	!	!	!	!	!	!	!	!	!	!	!	!
4G\	-a-	.	.	.	.	.	4G\	-a-	.	.	.	.	.	.	.	.	.	.	.	.	.	.	.	.	.	.	.	4b\	-a-	.	.	.	-te	.	.	.	.	.	.	.	.
!	!	!	!	!	!	!	!	!	!	!	!	!	!	!	!	!	!	!	!	!	!	!	!	!	!	!	!	!LO:TX:t=P:problem=kreska pseudotaktowa	!	!	!	!	!	!	!	!	!	!	!	!	!
*	*	*	*	*	*	*	*	*	*	*	*	*	*	*	*	*	*	*	*	*	*2\left	*	*	*	*	*	*ij	*	*	*	*	*	*	*	*	*	*	*	*	*	*
2A\	.	.	.	quid	-te	.	2A\	.	.	.	quid	-te	.	.	.	.	.	.	.	.	2e\	-r(um)	.	.	.	di-	De-	1cc\	.	.	.	quid	Vir-	-m(us)	2cc\	-a-	prae-	-tu-	quid	-te	-m(us)
!LO:TX:t=P:problem=kreska pseudotaktowa	!	!	!	!	!	!	!LO:TX:t=P:problem=kreska pseudotaktowa	!	!	!	!	!	!	!LO:TX:t=P:problem=kreska pseudotaktowa	!	!	!	!	!	!	!LO:TX:t=P:problem=kreska pseudotaktowa	!	!	!	!	!	!	!	!	!	!	!	!	!	!LO:TX:t=P:problem=kreska pseudotaktowa	!	!	!	!	!	!
*	*	*	*	*	*	*	*	*	*	*	*	*	*	*	*	*	*	*	*	*	*	*	*	*	*	*	*	*	*	*	*	*	*	*	*	*	*	*	*	*	*ij
2G\	-rum	.	-mni	.	.	.	2G\	-ru(m)	.	.	.	.	.	2B\	-a-	.	.	quid	-te	-m(us)	2g\	ge-	prae-	-tu-	quid	-vi-	-o	.	.	.	.	.	.	.	2a\	-r(um)	-ſen-	-rae	lo-	Vir-	De-
=14-	=14-	=14-	=14-	=14-	=14-	=14-	=14-	=14-	=14-	=14-	=14-	=14-	=14-	=14-	=14-	=14-	=14-	=14-	=14-	=14-	=14-	=14-	=14-	=14-	=14-	=14-	=14-	=14-	=14-	=14-	=14-	=14-	=14-	=14-	=14-	=14-	=14-	=14-	=14-	=14-	=14-
*	*	*	*	*	*	*	*	*	*	*	*	*	*	*	*	*	*	*	*	*	*	*	*	*	*	*	*	*	*	*	*	*	*	*	*	*ij	*	*ij	*	*	*
1.G\	ge-	prae-	-cre-	lo-	di-	.	1.G\	ge-	prae-	-tu-	lo-	Di-	.	2.d\	r(um)-	prae-	-a-	lo-	Di-	gra	1d\	.	-ſen-	-rae	lo-	-na	di-	2.b\	.	prae-	-tu-	lo	-tu-	di-	1g\	lin-	-ti-	O-	.	-ti-	-o
.	.	.	.	.	.	.	.	.	.	.	.	.	.	4c\	ge-	.	.	-qua-	-vi-	.	.	.	.	.	.	.	.	4a\	.	.	.	qua-	.	-ca-	.	.	.	.	.	.	.
.	.	.	.	.	.	.	.	.	.	.	.	.	.	2B\	.	.	.	.	.	.	2e\	.	.	.	.	.	-ca-	2b\	.	.	-rae	.	-te	-m(us)	2g/	-gu-	-a	-mni	-qua-	-te	Di-
1F\	.	.	.	.	.	.	1F\	.	.	-rae.	.	.	.	1c\	.	.	.	.	.	.	2.f\	.	.	Cre-	.	.	-m(us)	2.a\	-r(um)-	-ſen-	Cre-	.	.	gra-	1b\	-a-	et	Cre-	.	Di-	-ca-
*	*	*	*	*	*	*	*	*	*	*	*	*	*	*	*	*	*	*	*	*	*	*	*	*	*	*	*Xij	*	*	*	*	*	*	*	*	*	*	*	*	*	*
=15-	=15-	=15-	=15-	=15-	=15-	=15-	=15-	=15-	=15-	=15-	=15-	=15-	=15-	=15-	=15-	=15-	=15-	=15-	=15-	=15-	=15-	=15-	=15-	=15-	=15-	=15-	=15-	=15-	=15-	=15-	=15-	=15-	=15-	=15-	=15-	=15-	=15-	=15-	=15-	=15-	=15-
.	.	.	.	.	.	.	.	.	.	.	.	.	.	.	.	.	.	.	.	.	4e\	.	.	.	.	.	.	4g/	.	.	.	.	.	.	.	.	.	.	.	.	.
!	!	!	!	!	!	!	!LO:TX:t=P:problem=kreska pseudotaktowa	!	!	!	!	!	!	!LO:TX:t=P:problem=kreska pseudotaktowa	!	!	!	!	!	!	!	!	!	!	!	!	!	!	!	!	!	!	!	!	!LO:TX:t=P:problem=kreska pseudotaktowa	!	!	!	!	!	!
*	*	*	*	*	*	*	*	*	*	*	*	*	*	*	*	*	*	*	*	*	*	*	*	*	*	*	*	*	*	*	*	*	*	*	*2\right	*	*	*	*	*	*
2G\	.	.	.	.	.	-m(us)	2G\	.	.	Cre-	.	.	-m(us)	2B\	.	.	.	.	.	.	4d\	.	.	.	.	.	.	1g\	ge-	.	-a-	.	Di-	.	2dd\	-r(um)	prae-	-a-	.	.	m(us)
*	*	*	*	*	*	*	*	*	*	*	*	*	*	*	*	*	*	*	*	*	*	*	*	*	*	*	*	*	*	*	*	*	*	*	*	*Xij	*	*	*	*	*Xij
!	!	!	!	!	!	!	!	!	!	!	!	!	!	!	!	!	!	!	!	!	!LO:TX:t=P:problem=kreska pseudotaktowa	!	!	!	!	!	!	!	!	!	!	!	!	!	!	!	!	!	!	!	!
.	.	.	.	.	.	.	.	.	.	.	.	.	.	.	.	.	.	.	.	.	4c\	.	.	.	.	.	.	.	.	.	.	.	.	.	.	.	.	.	.	.	.
2.D/	.	-ſen-	-a-	-qua-	.	gra-	2.D/	.	-ſen-	-a-	-qua-	.	gra-	2.A/	.	-ſen-	.	.	.	.	2.d/	.	.	-a-	-qua-	di-	gra-	.	.	.	.	.	.	.	2dd\	ge-	-ſen-	-tu-	-mi-	-vi-	gra-
!	!	!	!	!	!	!	!	!	!	!	!	!	!	!	!	!	!	!	!	!	!	!	!	!	!	!	!	!LO:TX:t=P:problem=kreska pseudotaktowa	!	!	!	!	!	!	!LO:TX:t=P:problem=kreska pseudotaktowa	!	!	!	!	!	!
.	.	.	.	.	.	.	.	.	.	.	.	.	.	.	.	.	.	.	.	.	.	.	.	.	.	.	.	2f#X/	-ne-	-ti-	-tu-	-mi-	-vi-	-ti-	2a\	-ne-	-ti-	.	.	.	-ti-
4D/	-ne-	-ti-	-tu-	-mi-	-vi-	-ti-	4D/	-ne-	-ti-	-tu-	-mi-	-vi-	-ti-	4A/	-ne-	-ti-	-tu-	-mi-	.	-ti-	4d/	-ne-	-ti-	-tu-	-mi-	-vi-	-ti-	.	.	.	.	.	.	.	.	.	.	.	.	.	.
=16-	=16-	=16-	=16-	=16-	=16-	=16-	=16-	=16-	=16-	=16-	=16-	=16-	=16-	=16-	=16-	=16-	=16-	=16-	=16-	=16-	=16-	=16-	=16-	=16-	=16-	=16-	=16-	=16-	=16-	=16-	=16-	=16-	=16-	=16-	=16-	=16-	=16-	=16-	=16-	=16-	=16-
!LO:TX:t=P:problem=kreska pseudotaktowa	!	!	!	!	!	!	!LO:TX:t=P:problem=kreska pseudotaktowa	!	!	!	!	!	!	!LO:TX:t=P:problem=kreska pseudotaktowa	!	!	!	!	!	!	!LO:TX:t=P:problem=kreska pseudotaktowa	!	!	!	!	!	!	!LO:TX:t=P:problem=kreska pseudotaktowa	!	!	!	!	!	!	!LO:TX:t=P:problem=kreska pseudotaktowa	!	!	!	!	!	!
1GG/	-ra	-a	-rae.	-ni	-na	-as.	1GG/	-ra	-a	-rae.	-ni	-na	-as.	1G/	-ra	-a	-rae.	-ni	-na	-as.	1d\	-ra	-a	-rae.	-ni	-na	-as.	1g\,	-ra	-a	-rae.	-ni	-na	-as.	1b\,	-ra	-a	-rae	-ni/	-na/	-as
2r	.	.	.	.	.	.	2r	.	.	.	.	.	.	2r	.	.	.	.	.	.	2r	.	.	.	.	.	.	2r	.	.	.	.	.	.	2r	.	.	.	.	.	.
!	!	!	!	!	!	!	!LO:TX:t=P:problem=kreska pseudotaktowa	!	!	!	!	!	!	!LO:TX:t=P:problem=kreska pseudotaktowa	!	!	!	!	!	!	!LO:TX:t=P:problem=kreska pseudotaktowa	!	!	!	!	!	!	!LO:TX:t=P:problem=kreska pseudotaktowa	!	!	!	!	!	!	!	!	!	!	!	!	!
*	*ij	*ij	*ij	*ij	*ij	*ij	*	*	*ij	*ij	*	*	*	*	*	*	*	*	*	*	*	*	*	*ij	*	*	*	*	*	*	*ij	*	*	*	*2\left	*	*	*	*	*	*
2GG/	lin-	et	lin-	aut	Vir-	Di-	2GG/	lin-	et	o-	aut	Vir-	Di-	2G/	lin-	et	Cre-	aut	Vir-	di-	2d\	lin-	et	Cre-	aut	Vir-	di-	2b\	lin-	et	Cre-	aut	Vir-	di-	2b\	lin-	et	Cre-	aut	Vir-	di-
=17-	=17-	=17-	=17-	=17-	=17-	=17-	=17-	=17-	=17-	=17-	=17-	=17-	=17-	=17-	=17-	=17-	=17-	=17-	=17-	=17-	=17-	=17-	=17-	=17-	=17-	=17-	=17-	=17-	=17-	=17-	=17-	=17-	=17-	=17-	=17-	=17-	=17-	=17-	=17-	=17-	=17-
2GG/	-gua-	prae-	-gu-	quid	-ti-	-ca-	2GG/	-gua-	prae-	-mni	quid	-ti-	-ca-	2G/	-gua-	prae-	-a-	quid	-ti-	-ca-	2d\	-gua-	prae-	-a-	quid	-ti-	-ca-	2b\	-gua-	prae-	-a-	quid	-ti-	-ca-	2g/	-gua-	prae-	-a-	quid	-ti-	-ca-
!	!	!	!	!	!	!	!	!	!	!	!	!	!	!LO:TX:t=P:problem=kreska pseudotaktowa	!	!	!	!	!	!	!LO:TX:t=P:problem=kreska pseudotaktowa	!	!	!	!	!	!	!LO:TX:t=P:problem=kreska pseudotaktowa	!	!	!	!	!	!	!LO:TX:t=P:problem=kreska pseudotaktowa	!	!	!	!	!	!
2GG/	-ru(m)	-ſen-	-is	lo-	-te	-m(us)	2GG/	-ru(m)	-ſen-	Cre-	lo-	-te	-m(us)	2G/	-ru(m)	-ſen-	-tu-	lo-	-te	-m(us)	2d\	-ru(m)	-ſen-	-tu-	lo-	-te	-m(us)	2b\	-ru(m)	-ſen-	-tu-	lo-	-te	-m(us)	2b\	-ru(m)	-ſen-	-tu-	lo-	-te	-m(us)
!	!	!	!	!	!	!	!	!	!	!	!	!	!	!	!	!	!	!	!	!	!	!	!	!	!	!	!	!	!	!	!	!	!	!	!LO:N:vis=2.	!	!	!	!	!	!
2C/	ge-	-ti-	om-	-qua-	di-	gra-	2C/	ge-	-ti-	-a-	-qua-	Di-	gra-	2G/	ge-	-ti-	.	-qua-	Di-	gra-	(4e\	ge-	-ti-	.	-qua-	Di-	gra-	2cc\	ge-	-ti-	.	-qua-	Di-	gra-	2ee\	ge-	-ti-	.	-qua-	di-	gra-
.	.	.	.	.	.	.	.	.	.	.	.	.	.	.	.	.	.	.	.	.	4d\)	.	.	.	.	.	.	.	.	.	.	.	.	.	.	.	.	.	.	.	.
!LO:TX:t=P:problem=kreska pseudotaktowa	!	!	!	!	!	!	!LO:TX:t=P:problem=kreska pseudotaktowa	!	!	!	!	!	!	!	!	!	!	!	!	!	!	!	!	!	!	!	!	!	!	!	!	!	!	!	!	!	!	!	!	!	!
2C/	-ne-	-a	-ni-	-mi-	-vi-	-ti-	2C/	-ne-	-a	-tu-	-mi-	-vi-	-ti-	2G/	-ne-	-a	.	-mi-	-vi-	-ti-	(4e\	-ne-	-a	.	-mi-	-vi-	-ti-	2cc\	-ne-	-a	.	-mi-	-vi-	-ti-	2ee\	-ne-	-a	.	-mi-	-vi-	-ti-
.	.	.	.	.	.	.	.	.	.	.	.	.	.	.	.	.	.	.	.	.	4f\)	.	.	.	.	.	.	.	.	.	.	.	.	.	.	.	.	.	.	.	.
=18-	=18-	=18-	=18-	=18-	=18-	=18-	=18-	=18-	=18-	=18-	=18-	=18-	=18-	=18-	=18-	=18-	=18-	=18-	=18-	=18-	=18-	=18-	=18-	=18-	=18-	=18-	=18-	=18-	=18-	=18-	=18-	=18-	=18-	=18-	=18-	=18-	=18-	=18-	=18-	=18-	=18-
!	!	!	!	!	!	!	!	!	!	!	!	!	!	!LO:TX:t=P:problem=podwójna fermata powyżej i poniżej	!	!	!	!	!	!	!LO:TX:t=P:problem=podwójna fermata powyżej i poniżej	!	!	!	!	!	!	!LO:TX:t=P:problem=podwójna fermata powyżej i poniżej	!	!	!	!	!	!	!	!	!	!	!	!	!
00GG/;	-ra	.	-a	-ni	-na	-as	00GG/;;	-ra	.	-rae.	-ni	-na	-as	00G/;;	-ra	.	-rae	-ni	-na	-as	00g\;	-ra	.	-rae	-ni	-na	-as	00b\;;	-ra	.	-rae	-ni	-na	-as	00dd\	-ra	.	-rae	-ni	-na	-as
*	*Xij	*Xij	*Xij	*Xij	*Xij	*Xij	*	*	*Xij	*Xij	*	*	*	*	*	*	*	*	*	*	*	*	*	*Xij	*	*	*	*	*	*	*Xij	*	*	*	*	*	*	*Xij	*	*	*
=-	=-	=-	=-	=-	=-	=-	=-	=-	=-	=-	=-	=-	=-	=-	=-	=-	=-	=-	=-	=-	=-	=-	=-	=-	=-	=-	=-	=-	=-	=-	=-	=-	=-	=-	=-	=-	=-	=-	=-	=-	=-
*-	*-	*-	*-	*-	*-	*-	*-	*-	*-	*-	*-	*-	*-	*-	*-	*-	*-	*-	*-	*-	*-	*-	*-	*-	*-	*-	*-	*-	*-	*-	*-	*-	*-	*-	*-	*-	*-	*-	*-	*-	*-
!!!system-decoration: [(s1,s2,s3,s4,s5,s6)]
!!!EED: Leszek Kubiak
!!!EEV: 2021-04-01
!!!ENC: Tomasz Grochalski
!!!END: 2021-03-18
